!!!OTL: Symphony No. 5 in E minor, Movement 2
!!!COM: Tchaikovsky
**kern	**dynam	**kern	**dynam
*I"Clarinet 2 in A	*	*I"Clarinet 1 in A	*
*staff1	*staff1	*staff1	*staff1
*clefG2	*clefG2	*clefG2	*clefG2
*k[b-]	*k[b-]	*k[b-]	*k[b-]
*M12/8	*M12/8	*M12/8	*M12/8
=1-	=1-	=1-	=1-
1.r	.	1.r	.
=2	=2	=2	=2
1.r	.	1.r	.
=3	=3	=3	=3
1.r	.	1.r	.
=4	=4	=4	=4
1.r	.	1.r	.
=5	=5	=5	=5
1.r	.	1.r	.
=6	=6	=6	=6
1.r	.	1.r	.
=7	=7	=7	=7
1.r	.	1.r	.
=8	=8	=8	=8
1.r	.	1.r	.
=9	=9	=9	=9
1.r	.	1.r	.
=10	=10	=10	=10
1.r	.	1.r	.
=11	=11	=11	=11
1.r	.	1.r	.
=12	=12	=12	=12
1.r	.	1.r	.
=13	=13	=13	=13
1.r	.	1.r	.
=14	=14	=14	=14
1.r	.	1.r	.
=15	=15	=15	=15
1.r	.	1.r	.
=16	=16	=16	=16
!!LO:REH:t=A
1.r	.	(8A/L	p
.	.	8Bn/)	<
.	.	8c~/J	(
.	.	(8c/L	(
.	.	8d/)	(
.	.	8e~/J	[
.	.	(4.e/	>
.	.	4.e-/	)
=17	=17	=17	=17
1.r	.	4.d/)	]
.	.	(8A~/L	p
.	.	8B-~/	<
.	.	8c~/J)	[
.	.	(4.c/	>
.	.	4.B-/)	]
=18	=18	=18	=18
1.r	.	4.G/	<
.	.	(8G~/L	(
.	.	8A~/	(
.	.	8B-~/J)	[
.	.	(4.B-/	>
.	.	[4.A/	)
=19	=19	=19	=19
1.r	.	8A/])	]
.	.	8r	.
.	.	8r	.
.	.	4r	.
.	.	8r	.
.	.	2.r	.
=20	=20	=20	=20
1.r	.	1.r	.
=21	=21	=21	=21
1.r	.	4.A/	.
.	.	(8A~/L	<
.	.	8B-~/	(
.	.	8c~/J)	[
.	.	(4.c/	>
.	.	4.B-/)	]
=22	=22	=22	=22
1.r	.	4.G/	<
.	.	(8G~/L	(
.	.	8A~/	(
.	.	8B-~/J)	[
.	.	(4.B-/	>
.	.	[4.A/	)
=23	=23	=23	=23
1.r	.	8A/])	]
.	.	8r	.
.	.	8r	.
.	.	4r	.
.	.	8r	.
.	.	2.r	.
=24	=24	=24	=24
!!LO:TX:Z=10:b:t=Con moto
1.r	.	1.r	.
!!LO:MREST:break
=25	=25	=25	=25
!!LO:TX:Z=10:i:t=animato
1.r	.	1.r	.
=26	=26	=26	=26
1.r	.	1.r	.
=27	=27	=27	=27
1.r	.	1.r	.
=28	=28	=28	=28
1.r	.	2.r	.
.	.	4.a	.
.	.	(4c#/	mf
.	.	8f#/)	.
=29	=29	=29	=29
1.r	.	(4.fn/	>
.	.	4.e/)	]
.	.	2.r	.
=30	=30	=30	=30
1.r	.	1.r	.
=31	=31	=31	=31
1.r	.	1.r	.
=32	=32	=32	=32
1.r	.	1.r	.
=33	=33	=33	=33
!!LO:TX:b:Z=10:t=Tempo I
2.r	.	2.r	.
4r	.	4r	.
8r	.	8r	.
(4.g/	p	(4.g/	p
=34	=34	=34	=34
4c/)	.	4c/)	.
(8d/	.	(8d/	.
4c^/)	.	4c^/)	.
(8d/	.	(8d/	.
4c^/)	.	4c^/)	.
(8d/	.	(8d/	.
4.c^/)	.	4.c^/)	.
=35	=35	=35	=35
!!LO:TX:i:Z=10:t=animando
1.r	.	1.r	.
=36	=36	=36	=36
(8F/L	f	(8F/L	f
8A/	.	8A/	.
8c/J	.	8c/J	.
8f/)	.	8f/)	.
8r	.	8r	.
8r	.	8r	.
4r	.	4r	.
8r	.	8r	.
!!LO:TX:i:Z=10:t=riten.
(8f/L	mf	(8f/L	mf
8e/	.	8e/)	.
8d~/J)	.	8d~/J	.
=37	=37	=37	=37
!!LO:TX:i:Z=10:t=sostenuto
(4.f/	.	(4.f/	.
2.e/)	.	2.e/)	.
(8c/L	<	(8c/L	<
8d/)	(	8d/)	(
8e~/J	[	8e~/J	[
=38	=38	=38	=38
(4.g/	> ]	(4.g/	>
2.f/)	< [	2.f/)	]
8f~/L	f	8f~/L	f
8g~/	.	8g~/	<
8a~/J	.	8a~/J	[
=39	=39	=39	=39
!!LO:TX:Z=10:b:t=Poco pi&ugrave; animato
4.bn\	.	4.bn\	.
4b\	.	4b\	.
8b\	.	8b\	.
4.b\	.	4.b\	.
8f~/L	.	8f~/L	.
8g~/	.	8g~/	.
8a~/J	.	8a~/J	.
=40	=40	=40	=40
4.bn\	.	4.bn\	.
4b\	.	4b\	.
8b\	.	8b\	.
4.b\	.	4.b\	.
8b~\L	ff	8b~\L	ff
8cc~\	.	8cc~\	.
8dd~\J	.	8dd~\J	.
=41	=41	=41	=41
4.dd\	.	4.dd\	.
4dd\	.	4dd\	.
8dd\	.	8dd\	.
4.dd\	.	4.dd\	.
8bn~\L	.	8bn~\L	.
8cc~\	.	8cc~\	.
8dd~\J	.	8dd~\J	.
=42	=42	=42	=42
4.dd\	.	4.dd\	.
4dd\	.	4dd\	.
8dd\	.	8dd\	.
4.dd\	.	4.dd\	.
4dd\	.	4dd\	.
8dd\	.	8dd\	.
=43	=43	=43	=43
!!LO:TX:Z=10:b:t=Tempo I
4dd\	.	4dd\	.
[8dd\	.	[8dd\	.
8dd\]	.	8dd\]	.
4dd\	.	4dd\	.
4dd\	.	4dd\	.
([8dd\	.	([8dd\	.
4dd\]	.	4dd\]	.
8cc\)	.	8cc\)	.
=44	=44	=44	=44
4r	.	4r	.
8r	.	8r	.
2.c/	p	2.cc\	p
[4.c/	.	[4.cc\	> ]
=45	=45	=45	=45
!!LO:REH:t=B
8c/]	pp	8cc\]	pp
8r	.	8r	.
8r	.	8r	.
4r	.	4r	.
8r	.	8r	.
2.r	.	2.r	.
=46	=46	=46	=46
!!LO:TX:i:Z=10:t=animando
1.r	.	2.r	.
.	.	8ee\L	mf
.	.	8ee\	.
.	.	8ee\J	.
.	.	8ee\L	.
.	.	8ee\	.
.	.	8ee\J	.
=47	=47	=47	=47
1.r	.	8dd\	.
.	.	8r	.
.	.	8r	.
.	.	4r	.
.	.	8r	.
.	.	2.r	.
=48	=48	=48	=48
!!LO:TX:i:Z=10:t=riten.
1.r	.	1.r	.
=49	=49	=49	=49
1.r	.	1.r	.
=50	=50	=50	=50
!!LO:TX:i:Z=10:t=animando
1.r	.	2.r	.
.	.	8ee\L	mp
.	.	8ee\	.
.	.	8ee\J	.
.	.	8ee\L	.
.	.	8ee\	.
.	.	8ee\J	.
=51	=51	=51	=51
2.r	.	8dd\	.
.	.	8r	.
.	.	8r	.
.	.	4r	.
.	.	8r	.
8dd\L	mf	8ff\L	mf
8ff\	.	8ff\	.
8ff\J	.	8ff\J	.
8ff\L	.	8ff\L	.
8dd\	.	8ff\	.
8dd\J	.	8ff\J	.
=52	=52	=52	=52
!!LO:REH:t=C
!!LO:TX:b:Z=10:t=Poco pi&ugrave; mosso
!LO:TX:i:Y=20:t=cresc. poco a poco	!	!LO:TX:i:Y=20:t=cresc. poco a poco	!
8dd\L	.	8gg\L	.
8dd\	.	8gg\	.
8dd\J	.	8gg\J	.
8dd\L	.	8gg\L	.
8dd\	.	8gg\	.
8dd\J	.	8gg\J	.
8dd\L	.	8gg#\L	.
8dd\	.	8gg#\	.
8dd\J	.	8gg#\J	.
8dd\L	.	8gg#\L	.
8dd\	.	8gg#\	.
8dd\J	.	8gg#\J	.
=53	=53	=53	=53
8ee\L	.	8aa\L	.
8ee\	.	8aa\	.
8ee\J	.	8aa\J	.
8ee\L	.	8aa\L	.
8ee\	.	8aa\	.
8ee\J	.	8aa\J	.
8ff\L	.	8aa\L	.
8ff\	.	8aa\	.
8ff\J	.	8aa\J	.
8ff\L	.	8aa\L	.
8ff\	.	8aa\	.
8ff\J	.	8aa\J	.
=54	=54	=54	=54
8ff#\L	.	8aa\L	.
8ff#\	.	8aa\	.
8ff#\J	.	8aa\J	.
8ff#\L	.	8aa\L	.
8ff#\	.	8aa\	.
8ff#\J	.	8aa\J	.
8gg\L	.	8ddd\L	.
8gg\	.	8ddd\	.
8gg\J	.	8ddd\J	.
8gg\L	.	8ccc#\L	.
8gg\	.	8ccc#\	.
8gg\J	.	8ccc#\J	.
=55	=55	=55	=55
8gg\L	.	8ccc#\L	.
8gg\	.	8ccc#\	.
8gg\J	.	8ccc#\J	.
8gg\L	.	8ccc#\L	.
8gg\	.	8ccc#\	.
8gg\J	.	8ccc#\J	.
8bb-\L	.	8ddd\L	.
8bb-\	.	8ddd\	.
8bb-\J	.	8ddd\J	.
8bb-\L	.	8ddd\L	.
8bb-\	.	8ddd\	.
8bb-\J	.	8ddd\J	.
=56	=56	=56	=56
!!LO:TX:b:Z=10:t=Tempo I
8aa\L	fff	8ddd\L	fff
8aa\	.	8ddd\	.
8aa\J	.	8ddd\J	.
8dd\L	.	8ff\L	.
8dd\	.	8ff\	.
8ff\J	>	8aa-\J	.
8ee\L	)	8bb-\L	>
8ee\	)	8bb-\	)
8ee\J	)	8bb-\J	)
8ff\L	)	8bb-\L	)
8ff\	)	8bb-\	)
8gg\J	]	8bb-\J	]
=57	=57	=57	=57
!!LO:TX:Z=10:i:t=animando
8ff\L	ff	8bb-\L	ff
8ff\	>	8bb-\	>
8ff\J	)	8bb-\J	)
8b-\L	)	8dd\L	)
8b-\	)	8dd\	)
8dd\J	)	8ff\J	)
8cc#\L	)	8gg\L	)
8cc#\	)	8gg\	)
8cc#\J	)	8gg\J	)
8dd\L	)	8gg\L	)
8dd\	)	8gg\	)
8ee\J	]	8gg\J	]
=58	=58	=58	=58
8dd\L	f	8gg\L	f
8dd\	.	8gg\	.
8dd\J	.	8gg\J	.
8g/L	.	8b-\L	.
8g/	.	8b-\	.
8g/J	>	8b-\J	.
!!LO:TX:Z=10:i:t=riten.
4.g/	)	4.b-\	>
4.g#/	)	4.bn\	)
=59	=59	=59	=59
!!LO:TX:Z=10:b:t=Pi&ugrave; animato
4.a/	]	4.cc\	]
4r	.	4r	.
8r	.	8r	.
2.r	.	2.r	.
=60	=60	=60	=60
!!LO:TX:Z=10:i:t=riten.
1.r	.	1.r	.
!!LO:MREST:break
=61	=61	=61	=61
!!LO:TX:Z=10:b:t=Poco meno
1.r	.	1.r	.
=62	=62	=62	=62
1.r	.	1.r	.
=63	=63	=63	=63
1.r	.	1.r	.
=64	=64	=64	=64
1.r	.	1.r	.
=65	=65	=65	=65
1.r	.	1.r	.
=66||	=66||	=66||	=66||
*M4/4	*M4/4	*M4/4	*M4/4
*met(c)	*met(c)	*met(c)	*met(c)
!!LO:TX:Z=10:b:t=Moderato con anima
1r	.	1r	.
=67	=67	=67	=67
1r	.	4.ee\	mf <
.	.	(8bbn\	[
.	.	8ddd\L	>
.	.	8ccc\)	)
.	.	8bb~\	)
.	.	8aa~\J	]
=68	=68	=68	=68
1r	.	4gg^\	.
.	.	(36ff\LLL	.
.	.	36gg\	.
.	.	36ff\	.
.	.	36gg\	.
.	.	36ff\	.
.	.	36gg\	.
.	.	36ff\	.
.	.	36gg\	.
.	.	36ff\JJJ	.
.	.	2ee\)	.
=69	=69	=69	=69
1r	.	([4dd^\	.
.	.	16dd\LL]	.
.	.	16ee\	.
.	.	16ff\	.
.	.	16aa\JJ)	.
.	.	2ee\	.
=70	=70	=70	=70
1r	.	([4dd^\	.
.	.	16dd\LL]	.
.	.	16ee\	.
.	.	16ff\	.
.	.	16bbn\JJ)	.
.	.	2ee\	.
=71	=71	=71	=71
1r	.	1r	.
=72	=72	=72	=72
1r	.	1r	.
=73	=73	=73	=73
1r	.	1r	.
=74	=74	=74	=74
1r	.	1r	.
!!LO:MREST:break
=75	=75	=75	=75
!!LO:REH:t=D
1r	.	1r	.
=76	=76	=76	=76
1r	.	1r	.
=77	=77	=77	=77
1r	.	2r	.
.	.	8ee\	mf
.	.	4ee\	.
.	.	(8ee\	.
=78	=78	=78	=78
2r	.	8bn\L)	<
.	.	(8b\J	(
.	.	8dd#\L	(
.	.	8ee\J)	[
8r	.	8r	.
(8F#/	mf	(8f#/	mf
8A/L)	.	8a/L)	.
8A/J	.	8a/J	.
=79	=79	=79	=79
1r	.	1r	.
=80	=80	=80	=80
1r	.	8ee\	mf
.	.	4ee\	.
.	.	(8ee\	.
.	.	8dd#\)	.
.	.	4dd#\	.
.	.	[8dd#\	.
=81	=81	=81	=81
1r	.	8dd#\L]	.
.	.	(8dd#\	.
.	.	8ee\)	.
.	.	(8ee\J	.
.	.	8ff#\)	.
.	.	4ff#\	.
.	.	(8ff#\	.
=82	=82	=82	=82
2r	.	8cc#\L)	.
.	.	(8cc#\	.
.	.	8ee#\	.
.	.	8ff#\J)	.
8r	.	8r	.
(8G#/L	mf	(8g#/L	mf
8Bn/)	.	8bn/)	.
8B/J	.	8b/J	.
=83	=83	=83	=83
!!LO:REH:t=E
1r	.	1r	.
=84	=84	=84	=84
4.Bn/	f	4.bn\	f <
(8f#/	<	(8ff#\	(
8a/L	(	8aa\L	[
8g#/)	[	8gg#\)	>
8f#~/	>	8ff#~\	)
8e#~/J	]	8ee#~\J	]
=85	=85	=85	=85
4en^/	.	4een^\	.
(36d/LLL	.	(36dd\LLL	.
36e/	.	36ee\	.
36d/	.	36dd\	.
36e/	.	36ee\	.
36d/	.	36dd\	.
36e/	.	36ee\	.
36d/	.	36dd\	.
36e/	.	36ee\	.
36d/JJJ	.	36dd\JJJ	.
8c#/)	.	8cc#\)	.
8r	.	8r	.
(8f#/L	.	(8ff#\L	.
8e#/J)	.	8ee#\J)	.
=86	=86	=86	=86
4en^/	.	4een^\	.
(36d/LLL	.	(36dd\LLL	.
36e/	.	36ee\	.
36d/	.	36dd\	.
36e/	.	36ee\	.
36d/	.	36dd\	.
36e/	.	36ee\	.
36d/	.	36dd\	.
36e/	.	36ee\	.
36d/JJJ	.	36dd\JJJ	.
4c#/)	.	4cc#\)	.
(8e#/L	.	(8ee#\L	.
8g#/J)	.	8gg#\J)	.
=87	=87	=87	=87
1r	.	1r	.
=88	=88	=88	=88
4.c#/	mf	4.c#/	mf <
(8d/	<	(8d/	(
8f#/L	(	8f#/L	[
8e/)	[	8e/)	>
8d~/	>	8d~/	)
8c#~/J	]	8c#~/J	]
=89	=89	=89	=89
8A/L	f	8cn^/L	f
8A/	.	8c/	.
8A/	.	8c/	.
8A/J	.	8c/J	.
8A/L	.	8Bn/L	.
8A/	.	8B/	.
8A/	.	8B/	.
8A/J	.	8B/J	.
=90	=90	=90	=90
4.f#/	<	4.ff#\	f <
(8g/	(	(8gg\	(
8bn/L	[	8bbn\L	[
8a/)	>	8aa\)	>
8g~/	)	8gg~\	)
8f#~/J	]	8ff#~\J	]
=91	=91	=91	=91
!!LO:REH:t=F
1r	.	1r	.
=92	=92	=92	=92
1r	.	1r	.
=93	=93	=93	=93
1r	.	(2c^/	f
.	.	2Bn/)	.
=94	=94	=94	=94
1r	.	(2c^/	.
.	.	2Bn/)	.
=95	=95	=95	=95
4.Bn/	f	4.Bn/	f
!	!	!LO:TX:i:t=cresc.	!
(8f#/	.	(8f#/	.
8a/L	.	8a/L	.
8g/	.	8g/	.
8f#/	.	8f#/	.
8e/J)	.	8e/J)	.
=96	=96	=96	=96
!!LO:TX:i:Z=10:t=stringendo
(8G#/L	.	(8dd\L	.
8A/	.	8cc\	.
8Bn/	.	8bn\	.
8c/J)	.	8a\J)	.
(8c#/L	.	(8c#/L	.
8d#/	.	8d#/	.
8e/	.	8e/	.
8f#/J)	.	8f#/J)	.
=97	=97	=97	=97
(8g/L	fff	(8g/L	fff
8g#/	.	8g#/	.
8a/	.	8a/	.
8bn/J)	.	8bn/J)	.
(8cc\L	.	(8cc\L	.
8cc#\	.	8cc#\	.
8ddn\	.	8ddn\	.
8ee\J)	.	8ee\J)	.
=98	=98	=98	=98
(8dd\L	.	(8dd\L	.
8ccn\	.	8ccn\	.
8bn\	.	8bn\	.
8a\J)	.	8a\J)	.
(8g/L	.	(8g/L	.
8d/	.	8d/	.
8c/	.	8c/	.
8Bn/J)	.	8Bn/J)	.
=99	=99	=99	=99
!!LO:TX:b:Z=10:t=Tempo precedente
4.c/	fff	4.c/	fff
16c/LL	.	16c/LL	.
16c/JJ	.	16c/JJ	.
4.d/	.	4.d/	.
16c/LL	.	16c/LL	.
16Bn/JJ	.	16Bn/JJ	.
=100	=100	=100	=100
8c/L	.	8c/L	.
8c/J	.	8c/J	.
4r	.	4r	.
2r	.	2r	.
=101	=101	=101	=101
4.c/	.	4.c/	.
16c/LL	.	16c/LL	.
16c/JJ	.	16c/JJ	.
4.d/	.	4.d/	.
16c/LL	.	16c/LL	.
16Bn/JJ	.	16Bn/JJ	.
=102	=102	=102	=102
8c/L	.	8c/L	.
8c/J	.	8c/J	.
4r	.	4r	.
4r	.	4r	.
4d/	.	4g/	.
=103	=103	=103	=103
4c/	.	4g/	.
4d/	.	4g/	.
4G/	.	4c/	.
4B-/	.	4d/	.
=104	=104	=104	=104
8G/L	.	8c/L	.
8G/J	.	8c/J	.
4r	.	4r	.
4r	.	4r	.
4d/	.	4g/	.
=105	=105	=105	=105
4c/	.	4g/	.
4d/	.	4g/	.
4G/	.	4c/	.
4B-/	.	4d/	.
=106	=106	=106	=106
8G/L	.	8c/L	.
8G/J	.	8c/J	.
4r	.	4r	.
4r	.	4r	.
8G/	.	8c/	.
8r	.	8r	.
=107	=107	=107	=107
4r	.	4r	.
8G/	.	8c/	.
8r	.	8r	.
4r	.	4r	.
8G/	.	8c/	.
8r;	.	8r;	.
=108||	=108||	=108||	=108||
*M4/4	*M4/4	*M4/4	*M4/4
*met(c)	*met(c)	*met(c)	*met(c)
1r	.	1r	.
=109	=109	=109	=109
1r	.	1r	.
=110	=110	=110	=110
1r	.	1r	.
=111	=111	=111	=111
1r	.	1r	.
=112	=112	=112	=112
1r	.	1r	.
=113	=113	=113	=113
1r	.	1r	.
=114	=114	=114	=114
1r	.	1r	.
=115	=115	=115	=115
1r	.	1r	.
=116	=116	=116	=116
!!LO:REH:t=G
!!LO:TX:i:Z=10:t=animando
1r	.	(16B-/LL	mf
.	.	16A/	.
.	.	16B-/	.
.	.	16G/JJ)	.
.	.	[4g/	.
.	.	16g/LL]	<
.	.	(16a/	(
.	.	16b-/	(
.	.	16bn/JJ	(
.	.	[4cc\	(
=117	=117	=117	=117
1r	.	16cc\LL])	(
.	.	(16cc#\	(
.	.	16dd\	(
.	.	16ee\JJ	(
.	.	[4ff\	[
.	.	16ff\LL])	f
.	.	16gg\	.
.	.	16aa\	.
.	.	16bb-\JJ	.
.	.	(16ccc\LL	.
.	.	16bbn\	.
.	.	16bb-\	.
.	.	16aa\JJ)	.
=118	=118	=118	=118
1r	.	(4aa\	.
.	.	8gg#\L)	.
.	.	8dd\J	.
!!LO:TX:Z=10:i:t=riten.
.	.	(4ff^\	.
.	.	[4ee\	.
=119	=119	=119	=119
*M12/8	*M12/8	*M12/8	*M12/8
!!LO:TZ:Z=10:i:t=sostenuto
4r	.	8ee\])	.
.	.	8r	.
8r	.	8r	.
(8f/L	f	(8dd#\L	f
8d#/	.	8ff\	.
8e/J)	.	8ee\J)	.
4.e/	>	4.ee\	> ]
4r	)	4r	.
8r	]	8r	.
=120	=120	=120	=120
*M4/4	*M4/4	*M4/4	*M4/4
*met(c)	*met(c)	*met(c)	*met(c)
(16d/LL	mf	(16d/LL	mf
16e/)	<	16e/)	<
16f#~/	(	16f#~/	(
16g~/JJ	(	16g~/JJ	(
16a~/LL	(	16a~\LL	(
16b-~/	(	16b-~\	(
16bn~/	(	16bn~\	[
16cc~/JJ	[	16cc~\JJ	(
(16cc\LL	.	(16cc\LL	.
16b-\	.	16b-\	.
16a\	.	16a\	.
16cc\JJ	.	16cc\JJ	.
8b-\)	.	8b-\)	.
16r	.	16r	.
(16d/	mf	(16d/	mf
=121	=121	=121	=121
16c/LL	.	16c/LL	.
16d/)	<	16d/)	<
(16e~/	(	16e-~/	(
16fn~/JJ)	(	16fn~/JJ	(
16g~/LL	(	16g~/LL	(
16a-~/	(	16a-~/	(
16an~/	(	16an~/	(
16b-~/JJ	[	16b-~/JJ	[
(16b-/LL	.	(16b-/LL	.
16a/	.	16a/	.
16g#/	.	16g#/	.
16b-/JJ	.	16b-/JJ	.
8a/)	.	8a/)	.
8r	.	8r	.
=122	=122	=122	=122
!!LO:TX:i:Z=10:t=animando
16r	.	16r	.
(16Bn/LL	f	(16Bn/LL	f
16c/	.	16c/	.
16B/JJ)	.	16B/JJ)	.
16r	.	16r	.
(16c/LL	.	(16c/LL	.
16d/	.	16d/	.
16c/JJ)	.	16c/JJ)	.
16r	.	16r	.
(16d/LL	.	(16d/LL	.
16e/	.	16e/	.
16d/JJ)	.	16d/JJ)	.
16r	.	16r	.
(16e/LL	.	(16e/LL	.
16f/	.	16f/	.
16e/JJ)	.	16e/JJ)	.
=123	=123	=123	=123
!!LO:TX:i:Z=10:t=sostenuto
16r	.	16r	.
(16f/LL	.	(16f/LL	.
16g/	.	16g/	.
[16f/JJ	.	[16f/JJ	.
16f/LL])	.	16f/LL])	.
16e/	.	16e/	.
16d/	.	16d/	.
16d-/JJ	.	16d-/JJ	.
(16c/LL	.	(16c/LL	>
16b-/)	.	16b-/)	)
16a/	>	16a/	)
16g/JJ	)	16g/JJ	)
(16f/LL	)	(16f/LL	)
16e/)	)	16e/)	)
16dn/	)	16dn/	)
16c/JJ	]	16c/JJ	]
=124	=124	=124	=124
!!LO:REH:t=H
(16d/LL	mf	(16d/LL	mf
16e/)	.	16e/)	<
16fn~/	.	16f~/	(
16g~/JJ	.	16g~/JJ	(
16a~\LL	.	16a~\LL	(
16b-~\	.	16b-~\	(
16bn~\	.	16bn~\	[
16cc~\JJ	.	16cc~\JJ	.
(16cc\LL	.	(16cc\LL	.
16b-\	.	16b-\	.
16a\	.	16a\	.
16cc\JJ	.	16cc\JJ	.
8b-\)	.	8b-\)	.
16r	.	16r	.
(16d/	mf	(16d/	mf
=125	=125	=125	=125
16c/LL	.	16c/LL	.
16d/)	.	16d/)	.
16e-~/	<	16e-~/	<
16f~/JJ	(	16f~/JJ	(
16g~/LL	(	16g~/LL	(
16a-~/	(	16a-~/	(
16an~/	(	16an~/	(
16b-~/JJ	[	16b-~/JJ	[
(16b-/LL	.	(16b-/LL	.
16a/	.	16a/	.
16g#/	.	16g#/	.
16b-/JJ	.	16b-/JJ	.
8a/)	.	8a/)	.
8r	.	8r	.
=126	=126	=126	=126
!!LO:TX:i:Z=20:t=animando
16r	.	16r	.
(16Bn/LL	mf	(16bn\LL	mf
16c/	.	16cc\	.
16B/JJ)	.	16b\JJ)	.
16r	.	16r	.
!LO:TX:i:Y=20:t=cresc.	!	!LO:TX:i:Y=20:t=cresc.	!
(16c/LL	.	(16cc\LL	.
16d/	.	16dd\	.
16c/JJ)	.	16cc\JJ)	.
16r	.	16r	.
(16d/LL	.	(16dd\LL	.
16e/	.	16ee\	.
16d/JJ)	.	16dd\JJ)	.
16r	.	16r	.
(16e/LL	.	(16ee\LL	.
16f/	.	16ff\	.
16e/JJ)	.	16ee\JJ)	.
=127	=127	=127	=127
16r	.	16r	.
(16f/LL	f	(16ff\LL	f
16g/	.	16gg\	.
16f/JJ)	.	16ff\JJ)	.
16r	.	16r	.
(16f/LL	.	(16ff\LL	.
16g/	.	16gg\	.
16f/JJ)	.	16ff\JJ)	.
16r	.	16r	.
!!LO:TX:i:Z=10:t=riten.
(16f/LL	.	(16ff\LL	.
16d/	.	16dd\	.
16e/JJ)	.	16ee\JJ)	.
!LO:TX:i:Y=20:t=cantabile	!	!LO:TX:i:Y=20:t=cantabile	!
(12f/L	.	(12ff\L	f
12e/)	.	12ee\)	.
12d~/J	.	12dd~\J	.
=128	=128	=128	=128
!!LO:TX:Z=20:b:t=Pi&ugrave; mosso
*M12/8	*M12/8	*M12/8	*M12/8
(4.f^/	.	(4.ff^\	.
2.e/)	.	2.ee\)	.
(8c/L	<	(8cc\L	<
8d/)	(	8dd\)	(
8e~/J	[	8ee~\J	[
=129	=129	=129	=129
(4.g/	>	(4.gg\	>
2.f/)	]	2.ff\)	]
8f~/L	<	8ff~\L	<
8g~/	(	8gg~\	(
8a~/J	[	8aa~\J	[
=130	=130	=130	=130
4.b-\	f	4.bb-\	f
4b-\	.	4bb-\	.
8b-\	.	8bb-\	.
!LO:TX:Z=20:i:t=cresc.	!	!LO:TX:Z=20:i:t=cresc.	!
[4.b-\	.	[4.bb-\	.
4b-\]	.	4bb-\]	.
8b-\	.	8bb-\	.
=131	=131	=131	=131
(8.b-/L	.	(8.bb-\L	.
8.a/J)	.	8.aa\J)	.
8.dd\L	ff	8.ddd\L	ff
8.cc\J	.	8.ccc\J	.
!LO:TX:i:Y=20:t=dim.	!	!LO:TX:i:Y=20:t=dim.	!
(8b-/L	.	(8bb-\L	.
8a/)	.	8aa~\)	.
8g~/J	.	8gg~\J	.
8f~/L	.	8ff~\L	.
8e~/	.	8ee~\	.
8d~/J	.	8dd~\J	.
=132	=132	=132	=132
(4.f^/	f	(4.ff^\	f
2.e/)	.	2.ee\)	.
(8c/L	<	(8cc\L	<
8d/)	(	8dd\)	(
8e~/J	[	8ee~\J	[
=133	=133	=133	=133
(4.g/	>	(4.gg\	> ]
2.f/)	]	2.ff\)	<
8f~/L	<	8ff~\L	(
8g~/	(	8gg~\	(
8a~/J	[	8aa~\J	[
=134	=134	=134	=134
!!LO:TX:b:Z=10:t=Un poco pi&ugrave; animato
4.Bn/	f	4.bn\	f
4B/	.	4b\	.
8B/	.	8b\	.
4.B/	.	4.b\	.
8f~/L	.	8ff~\L	.
8g~/	.	8gg~\	.
8a~/J	.	8aa~\J	.
=135	=135	=135	=135
4.Bn/	.	4.bn\	.
4B/	.	4b\	.
8B/	.	8b\	.
4.B/	.	4.b\	.
8bn~\L	ff	8bbn~\L	ff
8cc~\	.	8ccc~\	.
8dd~\J	.	8ddd~\J	.
=136	=136	=136	=136
4.dd\	.	4.ff\	.
4dd\	.	4.ff\	.
8dd\	.	.	.
4.dd\	.	4.ff\	.
8bn~\L	.	8bbn~\L	.
8cc~\	.	8ccc~\	.
8dd~\J	.	8ddd~\J	.
=137	=137	=137	=137
4.dd\	.	4.ff\	.
4dd\	.	4.ff\	.
8dd\	.	.	.
8dd\	.	8ff\	.
4d/	.	4dd\	.
4d/	.	4dd\	.
[8d/	.	[8dd\	.
=138	=138	=138	=138
!!LO:REH:t=I
8d/]	.	8dd\]	.
4d/	.	4dd\	.
4d/	.	4dd\	.
[8d/	.	[8dd\	.
8d/]	.	8dd\]	.
4d/	.	4dd\	.
4d/	.	4dd\	.
[8d/	.	[8dd\	.
=139	=139	=139	=139
8d/]	.	8dd\]	.
4d/	.	4dd\	.
4d/	.	4dd\	.
[8d/	.	[8dd\	.
8d/]	.	8dd\]	.
4d/	.	4dd\	.
4d/	.	4dd\	.
[8d/	.	[8dd\	.
=140	=140	=140	=140
8d/L]	.	8dd\]	.
!!LO:TX:i:Z=10:t=riten.
8F#/	.	4bb-\	.
8G/J	.	.	.
8A/L	.	4gg\	.
8B-/	.	.	.
8d-/J	.	[8ff\	.
8dn/L	.	8ff\]	.
8f#/	.	4ee\	.
8g/J	.	.	.
8b-\L	.	4dd\	.
8bn\	.	.	.
8cc\J	.	8cc\	.
=141	=141	=141	=141
8c#/L	.	8c#/L	.
8d/	.	8d/	.
8e/J	.	8e/J	.
8f/L	.	8f/L	.
8f#/	.	8f#/	.
8g/J	.	8g/J	.
8a\L	.	8a\L	.
8b-\	.	8b-\	.
8ccn\J	.	8ccn\J	.
8cc#\L	.	8cc#\L	.
8dd\	.	8dd\	.
8ee\J	.	8ee\J	.
=142	=142	=142	=142
!!LO:TX:b:Z=40:t=Andante mosso
*M4/4	*M4/4	*M4/4	*M4/4
*met(c)	*met(c)	*met(c)	*met(c)
16aa\LL	ff	16ccc\LL	ff
16cc\	.	16aa\	.
16cc\	.	16aa\	.
16cc\JJ	.	16aa\JJ	.
16cc\LL	.	16aa\LL	.
16cc\	.	16aa\	.
16cc\	.	16aa\	.
16cc\JJ	.	16aa\JJ	.
16b-\LL	.	16gg\LL	.
16b-\	.	16gg\	.
16b-\	.	16gg\	.
16b-\JJ	.	16gg\JJ	.
16a/LL	.	16aa\LL	.
16a/	.	16aa\	.
16g/	.	16bb-\	.
16g/JJ	.	16bb-\JJ	.
=143	=143	=143	=143
16a/LL	.	16ff\LL	.
16a/	.	16ff\	.
16a/	.	16dd\	.
16a/JJ	.	16dd\JJ	.
16a/LL	.	16dd\LL	.
16a/	.	16dd\	.
16a/	.	16ff\	.
16a/JJ	.	16ff\JJ	.
!LO:TX:i:Y=20:t=cresc.	!	!LO:TX:i:Y=20:t=cresc.	!
16a/LL	.	16ee\LL	.
16a/	.	16ee\	.
16a/	.	16ee\	.
16a/JJ	.	16ee\JJ	.
16a/LL	.	16ee\LL	.
16a/	.	16ee\	.
16a/	.	16ee\	.
16a/JJ	.	16ee\JJ	.
=144	=144	=144	=144
!!LO:TX:i:Z=10:t=animando
16ff\LL	.	16gg#\LL	.
16ff\	.	16gg#\	.
16dd\	.	16gg#\	.
16dd\JJ	.	16gg#\JJ	.
16dd\LL	.	16gg#\LL	.
16dd\	.	16gg#\	.
16ff\	.	16gg#\	.
16ff\JJ	.	16gg#\JJ	.
16dd\LL	ff	16ff\LL	ff
16dd\	.	16ff\	.
16ff\	.	16aa\	.
16ff\JJ	.	16aa\JJ	.
16a/LL	.	16aa\LL	.
16a/	.	16aa\	.
16a/	.	16aa\	.
16a/JJ	.	16aa\JJ	.
=145	=145	=145	=145
16dd\LL	.	16bb-\LL	.
16dd\	.	16bb-\	.
16dd\	.	16aa\	.
16dd\JJ	.	16aa\JJ	.
16dd\LL	.	16ggn\LL	.
16dd\	.	16gg\	.
16dd\	.	16gg\	.
16dd\JJ	.	16gg\JJ	.
!!LO:TX:i:Z=10:t=riten.
16dd\LL	.	16gg\LL	.
16dd\	.	16gg\	.
16dd\	.	16gg\	.
16dd\JJ	.	16gg\JJ	.
16gg\LL	.	16bb-\LL	.
16gg\	.	16bb-\	.
16gg\	.	16bb-\	.
16gg\JJ	.	16bb-\JJ	.
=146	=146	=146	=146
16cc\LL	ff	16aa\LL	ff
16cc\	.	16aa\	.
16cc\	.	16aa\	.
16cc\JJ	.	16aa\JJ	.
16cc\LL	.	16aa\LL	.
16cc\	.	16aa\	.
16cc\	.	16aa\	.
16cc\JJ	.	16aa\JJ	.
16b-\LL	.	16gg\LL	.
16b-\	.	16gg\	.
16b-\	.	16gg\	.
16b-\JJ	.	16gg\JJ	.
16a/LL	.	16aa\LL	.
16a/	.	16aa\	.
16g/	.	16bb-\	.
16g/JJ	.	16bb-\JJ	.
=147	=147	=147	=147
!!LO:TX:i:Z=20:t=animando un poco
16a/LL	.	16ff\LL	.
16a/	.	16ff\	.
16a/	.	16dd\	.
16a/JJ	.	16dd\JJ	.
16a/LL	.	16dd\LL	.
16a/	.	16dd\	.
16a/	.	16ff\	.
16a/JJ	.	16ff\JJ	.
!LO:TX:i:Y=20:t=cresc.	!	!LO:TX:i:Y=20:t=cresc.	!
16a/LL	.	16ee\LL	.
16a/	.	16ee\	.
16a/	.	16ee\	.
16a/JJ	.	16ee\JJ	.
16a/LL	.	16ee\LL	.
16a/	.	16ee\	.
16a/	.	16ee\	.
16a/JJ	.	16ee\JJ	.
=148	=148	=148	=148
16ff\LL	.	16gg#\LL	.
16ff\	.	16gg#\	.
16dd\	.	16gg#\	.
16dd\JJ	.	16gg#\JJ	.
16dd\LL	.	16gg#\LL	.
16dd\	.	16gg#\	.
16ff\	.	16gg#\	.
16ff\JJ	.	16gg#\JJ	.
16dd\LL	.	16ff\LL	.
16dd\	.	16ff\	.
16dd\	.	16ff\	.
16dd\JJ	.	16ff\JJ	.
16dd\LL	.	16ff\LL	.
16dd\	.	16ff\	.
16dd\	.	16ff\	.
16dd\JJ	.	16ff\JJ	.
=149	=149	=149	=149
*M12/8	*M12/8	*M12/8	*M12/8
(4.A/	fff	(4.a/	fff
4B-/)	.	4b-\)	.
8B-/	.	8b-\	.
(4.B-/	.	(4.b-\	.
4Bn/)	.	4bn\)	.
8B/	.	8b\	.
=150	=150	=150	=150
(8.Bn/L	.	(8.bn\L	.
8.c/J)	.	8.cc\J)	.
8.c/L	.	8.cc\L	.
8.c/J	.	8.cc\J	.
(8.c/L	.	(8.cc#\L	.
8.c#/J)	.	8.cc\J)	.
8.c#/L	.	8.cc\L	.
8.c#/J	.	8.cc\J	.
=151	=151	=151	=151
!!LO:REH:t=K
(4.c#/	.	(4.cc#\	.
4d/)	.	4dd\)	.
8d/	.	8dd\	.
(4.d/	.	(4.dd\	.
4e-/)	.	4ee-\)	.
8e-/	.	8ee-\	.
=152	=152	=152	=152
(8.e-/L	.	(8.ee-\L	.
8.en/J)	.	8.een\J)	.
8.e/L	.	8.ee\L	.
8.e/J	.	8.ee\J	.
(8.e/L	.	(8.ee\L	.
8.f/J)	.	8.ff\J)	.
8.f/L	.	8.ff\L	.
8.f/J	.	8.ff\J	.
=153	=153	=153	=153
!!LO:TX:Z=10:b:t=Molto pi&ugrave; andante
*M4/4	*M4/4	*M4/4	*M4/4
*met(c)	*met(c)	*met(c)	*met(c)
4f/	ffff	4ff\	ffff
(8A/L	.	(8a\L	.
8d/J)	.	8dd\J)	>
2c/	> ]	2cc\	]
=154	=154	=154	=154
4d/	ff	4dd\	ff
!!LO:TX:i:Z=10:t=animando
(8F/L	.	(8f/L	.
8B-/J)	.	8b-/J)	>
2A/	> ]	2a/	]
=155	=155	=155	=155
16B-/LL	f	16b-\LL	f
16g/	.	16gg\	.
16g/	.	16gg\	.
16g/JJ	.	(16gg\JJ	.
(6d/	.	6dd\	.
12e/)	.	12ee\)	>
!!LO:TX:i:Z=10:t=riten.
[2f/	> ]	[2ff\	]
=156	=156	=156	=156
!!LO:TX:b:Z=10:t=Pi&ugrave; animato
4f/]	mf	4ff\]	mf
4r	.	4r	.
2r	.	2r	.
=157	=157	=157	=157
!!LO:TX:i:Z=10:t=riten.
1r	.	1r	.
=158	=158	=158||	=158||
*M4/4	*M4/4	*M4/4	*M4/4
*met(c)	*met(c)	*met(c)	*met(c)
!!LO:TX:b:Z=10:t=Allegro non troppo
(8g/L	fff	(8gg\L	fff
8f/J)	.	8ff\J)	.
4r	.	4r	.
2r	.	2r	.
=159	=159	=159	=159
4r	.	4r	.
2.f/	.	2.a-/	.
=160	=160	=160	=160
1r	.	1r	.
=161	=161	=161	=161
4r	.	4r	.
2.a-/	.	2.dd\	.
=162	=162	=162	=162
2a-/	.	(4.dd\	.
.	.	8ff\)	.
2dd\	.	(4.aa-\	.
.	.	8ddd\)	.
=163	=163	=163	=163
4.a-/	.	4.dd\	.
8dd\	.	8ff\	.
4a-/	.	4dd\	.
(8dd\L	.	(8ff\L	.
8ff\J)	.	8aa-\J)	.
=164	=164	=164	=164
12ff\L	fff	12ddd-\L	fff
12ff\	.	12ddd-\	.
12ff\J	.	12ddd-\J	.
12ff\L	.	12ddd-\L	.
12ff\	.	12ddd-\	.
12ff\J	.	12ddd-\J	.
8ff^\L	.	8ddd-^\L	.
8ff^\J	.	8ddd-^\J	.
8ff^\L	.	8ddd-^\L	.
8ff^\J	.	8ddd-^\J	.
=165	=165	=165	=165
8dd-^\L	.	8ff^\L	.
8dd-^\J	.	8ff^\J	.
4r	.	4r	.
4r	.	4r	.
!!LO:TX:i:Z=10:t=riten.
(4ff\	mf	(4ff\	mf
=166	=166	=166	=166
4ee-^\	.	4ee-^\	.
4dd-\)	.	4dd-\)	.
4r	.	4r	.
(4dd-\	p	(4dd-\	p
=167	=167	=167	=167
4cc^\	.	4cc^\	.
4b-\)	.	4b-\)	.
4r	.	4r	.
(4f/	pp	(4f/	pp
=168	=168	=168	=168
4g/	<	4g/	< [
4a/)	[	4a/)	.
(4cc\	>	(4cc\	>
[4b-\	)	[4b-\	]
=169	=169	=169	=169
2.b-\])	]	2.b-\])	.
4dd-~\	pp	4dd-\	pp
=170||	=170||	=170||	=170||
*M12/8	*M12/8	*M12/8	*M12/8
!!LO:TX:b:Z=20:t=Tempo I
[4.dd-^\	.	[4.dd-^\	.
4dd-\_	.	4dd-\_	.
16dd-\LL]	.	16dd-\LL]	.
16cc\JJ	.	16cc\JJ	.
4.cc\	pp >	[4.cc\	pp >
8cc\	]	8cc\]	]
8r	.	8r	.
8r	.	8r	.
=171	=171	=171	=171
1.r	.	1.r	.
=172	=172	=172	=172
1.r	.	1.r	.
=173	=173	=173	=173
8c/L	pp	8cc\L	pp
8c/	.	8cc\	.
8c/J	.	8cc\J	.
8c/L	.	8cc\L	.
8c/	.	8cc\	.
8c/J	.	8cc\J	<
8b-\L	<	8ee\L	(
8b-\	(	8ee\	(
8b-\J	(	8ee\J	(
8b-\L	(	8ee\L	(
8b-\	(	8ee\	(
8b-\J	[	8ee\J	[
=174	=174	=174	=174
8cc\L	>	8ff\L	>
8cc\	)	8ff\	)
8cc\J	)	8ff\J	)
8a/L	)	8cc\L	]
8a/	)	8cc\	.
8a/J	)	8cc\J	.
8b-\L	)	8dd-\L	<
8b-\	)	8dd-\	(
8b-\J	)	8dd-\J	(
8b-\L	)	8dd-\L	(
8b-\	)	8dd-\	(
8b-\J	]	8dd-\J	[
=175	=175	=175	=175
8f/L	>	8cc\L	>
8f/	)	8cc\	)
8f/J	)	8cc\J	)
8f/L	)	8cc\L	)
8f/	)	8cc\	)
8f/J	]	8cc\J	]
8b-\L	<	8ee\L	<
8b-\	(	8ee\	(
8b-\J	(	8ee\J	(
8b-\L	(	8ee\L	(
8b-\	(	8ee\	(
8b-\J	[	8ee\J	[
=176	=176	=176	=176
8cc\L	>	8ff\L	>
8cc\	)	8ff\	)
8cc\J	)	8ff\J	)
8a/L	)	8cc\L	)
8a/	)	8cc\	]
8a/J	]	8cc\J	<
8b-\L	<	8dd-\L	(
8b-\	(	8dd-\	(
8b-\J	(	8dd-\J	(
8b-\L	(	8dd-\L	(
8b-\	(	8dd-\	(
8b-\J	[	8dd-\J	[
=177	=177	=177	=177
8cc\	>	8cc\	.
8r	)	8r	.
8r	)	8r	.
4r	)	4r	.
8r	]	8r	.
(2.G/	pp	(2.B-/	pp
=178	=178	=178	=178
8A/)	.	8c/)	.
8r	.	8r	.
8r	.	8r	.
4r	.	4r	.
8r	.	8r	.
(2.G/	.	(2.B-/	.
=179	=179	=179	=179
8A/)	.	8c/)	.
8r	.	8r	.
8r	.	8r	.
4r	.	4r	.
8r	.	8r	.
2.r	.	2.r	.
=180	=180	=180	=180
1.r	.	1.r	.
=181	=181	=181	=181
1.r	.	1.r	.
=182	=182	=182	=182
*M4/4	*M4/4	*M4/4	*M4/4
*met(c)	*met(c)	*met(c)	*met(c)
4r	.	4r	.
8r	.	8r	.
!	!	!	!LO:DY:X=-40
(8F/	ppp	(8F/	ppp
8A/L	<	8A/L	<
8c/	(	8c/	(
8f/	(	8f/	(
8a/J)	[	8a/J)	[
!!LO:TX:i:Z=10:t=riten. molto
=183	=183	=183	=183
*M12/8	*M12/8	*M12/8	*M12/8
[4.g/	>	[4.g/	>
4g/_	)	4g/_	)
16g/LL]	)	16g/LL]	)
16f/JJ	]	16f/JJ	]
[2.f/	pp >	[2.f/	pp >
=184	=184	=184	=184
2.f/_	]	2.f/_	]
8f/]	ppp	8f/]	ppp
8r	.	8r	.
8r	.	8r	.
4r	.	4r	.
8r;	.	8r;	.
==	==	==	==
*-	*-	*-	*-
!!muse2ps: =z21u^transposed score^
